X:1
T:Title
%%score { ( 1 4 ) | ( 2 3 ) }
L:1/8
M:4/4
K:Eb
V:1 treble nm="Grand Piano"
V:4 treble 
V:2 bass 
V:3 bass 
V:1
 z4 z2[Q:1/4=100] E2 | G2 G>G G>F E>G | [GB]2 [GB]4 [GB]2 | c2 c>c [GB]>G E>G |[M:3/4] [DF]6 | %5
[M:1/4] E2 |[M:4/4] G2 G>G G>F E>G | [GB]2 [GB]4 [Ac]>c | B2 B>A G2 [DF]2 |[M:3/4] E6 | %10
[M:1/4] [GB]2 |[M:4/4] [Ge]2 [Ge]>[Ge] [Ge]>[Ac] [GB]>G | [GB]2 [GB]4 B2 | c6 z2 |[M:3/4] e6 | %15
[M:1/4] [GB]>[GB] |[M:4/4] [Ge]2 [Ge]>[Ge] [Ge]>[Ac] [GB]>[EG] | [GB]2 [GB]4 c2 | B2 B>A G2 [DF]2 | %19
[M:3/4] [B,E]6 |] %20
V:2
 z4 z2 [E,G,]2 | [E,B,E]2 [E,B,E]>[E,B,E] [E,B,E]>[E,A,E] [E,G,]>[E,B,E] | [E,E]2 [E,E]4 [E,E]2 | %3
 [A,EA]2 [A,EA]>[A,EA][K:bass] [E,E]>[E,B,E] [G,B,]>[E,B,E] |[M:3/4] [B,,B,]6 |[M:1/4] [E,G,]2 | %6
[M:4/4] [E,B,E]2 [E,B,E]>[E,B,E] [E,B,E]>[E,A,E] [E,G,]>[E,B,E] | z4 z2[K:treble] [A,E]2 | %8
 [B,G]2 [G,B,E]>[A,CF][K:bass] [B,E]2 [B,,A,]2 |[M:3/4] [E,G,]6 |[M:1/4] [E,E]2 | %11
[M:4/4] [E,B,]2 [E,B,]>[E,B,] [E,B,]>[E,E] [E,E]>[E,E] | [E,E]2 [E,E]4[K:treble] G2 | A6 z2 | %14
[M:3/4] G6[K:bass] |[M:1/4] [E,E]>[E,E] |[M:4/4] [E,B,]2 [E,B,]>[E,B,] [E,B,]>[E,E] [E,E]>[E,B,] | %17
 [E,E]2 [E,E]4[K:treble] [A,EA]2 | [B,EG]2 [G,E]>[A,CF] [B,E]2[K:bass] [B,,A,]2 |[M:3/4] [E,G,]6 |] %20
V:3
 x8 | x8 | x8 | x4[K:bass] x4 |[M:3/4] x6 |[M:1/4] x2 |[M:4/4] x8 | %7
 [E,E]2 [E,E]4[K:treble] z z/ A/ | x4[K:bass] x4 |[M:3/4] x6 |[M:1/4] x2 |[M:4/4] x8 | %12
 x6[K:treble] x2 | z2 A,>A, A,2 A2 |[M:3/4] z2[K:bass] E,>E, E,2 |[M:1/4] x2 |[M:4/4] x8 | %17
 x6[K:treble] x2 | x6[K:bass] x2 |[M:3/4] x6 |] %20
V:4
 x8 | x8 | x8 | x8 |[M:3/4] x6 |[M:1/4] x2 |[M:4/4] x8 | x8 | x8 |[M:3/4] x6 |[M:1/4] x2 | %11
[M:4/4] x8 | x8 | z2 E>E E2 e2 |[M:3/4] z2 E>E E2 |[M:1/4] x2 |[M:4/4] x8 | x8 | x8 |[M:3/4] x6 |] %20

